src/img/logo.svg

<svg width="84" height="19" viewBox="0 0 84 19" fill="none" xmlns="http://www.w3.org/2000/svg">
<path d="M79.2159 9L79.3548 6.06921L76.794 7.66348L76 6.34606L78.7196 5.00955L76 3.67303L76.794 2.33652L79.3548 3.93079L79.2159 1H80.7841L80.6452 3.93079L83.206 2.33652L84 3.67303L81.2804 5.00955L84 6.34606L83.206 7.66348L80.6452 6.06921L80.7841 9H79.2159Z" fill="#FAFAFA"/>
<path d="M67.0858 8.55742V15H65V4.13604H67.0279V5.92403H67.1727C67.4174 5.33451 67.8004 4.86808 68.3219 4.52473C68.8433 4.17491 69.5129 4 70.3305 4C71.0644 4 71.7049 4.15548 72.2521 4.46643C72.8058 4.77091 73.2339 5.22762 73.5365 5.83657C73.8455 6.44552 74 7.20024 74 8.10071V15H71.9142V8.35336C71.9142 7.56949 71.7082 6.95406 71.2961 6.50707C70.8841 6.05359 70.324 5.82686 69.6159 5.82686C69.133 5.82686 68.6985 5.93698 68.3122 6.15724C67.9324 6.37102 67.633 6.67874 67.4142 7.08039C67.1953 7.48204 67.0858 7.97438 67.0858 8.55742Z" fill="#FAFAFA"/>
<path d="M58.9952 15C57.9917 15 57.1128 14.7714 56.3586 14.3143C55.6107 13.8571 55.0291 13.2159 54.6136 12.3905C54.2045 11.5651 54 10.6063 54 9.51429C54 8.40952 54.2045 7.44444 54.6136 6.61905C55.0291 5.7873 55.6107 5.14286 56.3586 4.68571C57.1128 4.22857 57.9917 4 58.9952 4C60.0051 4 60.884 4.22857 61.6318 4.68571C62.3797 5.14286 62.9613 5.7873 63.3768 6.61905C63.7923 7.44444 64 8.40952 64 9.51429C64 10.6063 63.7923 11.5651 63.3768 12.3905C62.9613 13.2159 62.3797 13.8571 61.6318 14.3143C60.884 14.7714 60.0051 15 58.9952 15ZM58.9952 13.2571C59.6536 13.2571 60.1969 13.0857 60.6251 12.7429C61.0534 12.4 61.3698 11.946 61.5743 11.381C61.7852 10.8095 61.8907 10.1873 61.8907 9.51429C61.8907 8.82857 61.7852 8.2 61.5743 7.62857C61.3698 7.05714 61.0534 6.6 60.6251 6.25714C60.1969 5.91429 59.6536 5.74286 58.9952 5.74286C58.3432 5.74286 57.8031 5.91429 57.3749 6.25714C56.953 6.6 56.6366 7.05714 56.4257 7.62857C56.2148 8.2 56.1093 8.82857 56.1093 9.51429C56.1093 10.1873 56.2148 10.8095 56.4257 11.381C56.6366 11.946 56.953 12.4 57.3749 12.7429C57.8031 13.0857 58.3432 13.2571 58.9952 13.2571Z" fill="#FAFAFA"/>
<path d="M52.7819 6.74286L50.8293 7.06667C50.7037 6.71111 50.4692 6.38413 50.1256 6.08571C49.7885 5.7873 49.283 5.6381 48.609 5.6381C48.0011 5.6381 47.4923 5.77143 47.0826 6.0381C46.6795 6.29841 46.478 6.63175 46.478 7.0381C46.478 7.39365 46.6134 7.68254 46.8844 7.90476C47.1619 8.12698 47.6013 8.30476 48.2026 8.4381L49.9769 8.81905C50.9879 9.04127 51.7445 9.39048 52.2467 9.86667C52.7489 10.3429 53 10.9524 53 11.6952C53 12.3365 52.8084 12.9079 52.4251 13.4095C52.0419 13.9048 51.5099 14.2952 50.8293 14.581C50.1487 14.8603 49.3623 15 48.4703 15C47.228 15 46.217 14.7429 45.4372 14.2286C44.6575 13.7143 44.1784 12.9905 44 12.0571L46.0716 11.7524C46.2037 12.273 46.4714 12.6667 46.8744 12.9333C47.2841 13.2 47.8128 13.3333 48.4604 13.3333C49.1608 13.3333 49.7225 13.1905 50.1454 12.9048C50.5749 12.619 50.7896 12.273 50.7896 11.8667C50.7896 11.1937 50.2676 10.7397 49.2236 10.5048L47.3502 10.1048C46.3128 9.87619 45.5463 9.51746 45.0507 9.02857C44.5617 8.53333 44.3172 7.91111 44.3172 7.1619C44.3172 6.53333 44.4989 5.98095 44.8623 5.50476C45.2324 5.02857 45.7379 4.66032 46.3789 4.4C47.0264 4.13333 47.7632 4 48.5892 4C49.7919 4 50.7335 4.25079 51.4141 4.75238C52.1013 5.25397 52.5573 5.91746 52.7819 6.74286Z" fill="#FAFAFA"/>
<path d="M38 15V4.1552H40.1005V5.89153H40.2211C40.4288 5.30952 40.7906 4.85038 41.3065 4.51411C41.8291 4.17137 42.4188 4 43.0754 4C43.2094 4 43.3668 4.00647 43.5477 4.0194C43.7353 4.02587 43.8861 4.03557 44 4.0485V6.06614C43.9129 6.04027 43.7554 6.0144 43.5276 5.98854C43.3065 5.96267 43.0821 5.94974 42.8543 5.94974C42.3384 5.94974 41.876 6.05644 41.4673 6.26984C41.0653 6.47678 40.7471 6.76455 40.5126 7.13316C40.2848 7.4953 40.1709 7.91564 40.1709 8.39418V15H38Z" fill="#FAFAFA"/>
<path d="M32.2668 15C31.1864 15 30.251 14.7746 29.4605 14.3238C28.67 13.873 28.0606 13.2381 27.6324 12.419C27.2108 11.5937 27 10.6317 27 9.53333C27 8.44127 27.2075 7.47937 27.6225 6.64762C28.0441 5.81587 28.6337 5.16825 29.3913 4.70476C30.1555 4.23492 31.0514 4 32.0791 4C32.7049 4 33.3109 4.09841 33.8972 4.29524C34.4835 4.49206 35.0105 4.80317 35.4783 5.22857C35.946 5.65397 36.3149 6.20635 36.585 6.88571C36.8617 7.56508 37 8.38413 37 9.34286V10.0857H28.2154V8.53333H35.8933L34.8953 9.04762C34.8953 8.39365 34.7899 7.81587 34.5791 7.31429C34.3682 6.8127 34.052 6.42222 33.6304 6.14286C33.2154 5.85714 32.6983 5.71429 32.0791 5.71429C31.4598 5.71429 30.9295 5.85714 30.4881 6.14286C30.0534 6.42857 29.7207 6.80635 29.4901 7.27619C29.2596 7.74603 29.1443 8.26032 29.1443 8.81905V9.87619C29.1443 10.6063 29.276 11.2254 29.5395 11.7333C29.803 12.2413 30.1686 12.6286 30.6364 12.8952C31.1107 13.1619 31.6607 13.2952 32.2866 13.2952C32.695 13.2952 33.0639 13.2381 33.3933 13.1238C33.7292 13.0095 34.0191 12.8381 34.2628 12.6095C34.5066 12.381 34.691 12.0984 34.8162 11.7619L36.8518 12.1333C36.6871 12.7048 36.3972 13.2063 35.9822 13.6381C35.5672 14.0698 35.0435 14.4063 34.4111 14.6476C33.7852 14.8825 33.0705 15 32.2668 15Z" fill="#FAFAFA"/>
<path d="M27.4388 4.25V5.93269H21V4.25H27.4388ZM22.7551 15V3C22.7551 2.33333 22.9116 1.77885 23.2245 1.33654C23.5442 0.887821 23.9592 0.554487 24.4694 0.336538C24.9864 0.112179 25.5408 0 26.1327 0C26.5884 0 26.9762 0.0352564 27.2959 0.105769C27.6156 0.176282 27.8503 0.23718 28 0.288462L27.4694 1.98077C27.3673 1.94872 27.2347 1.91346 27.0714 1.875C26.915 1.83654 26.7177 1.81731 26.4796 1.81731C25.9422 1.81731 25.5544 1.94551 25.3163 2.20192C25.0782 2.45192 24.9592 2.81731 24.9592 3.29808V15H22.7551Z" fill="#FAFAFA"/>
<path d="M21.4388 4.25V5.93269H15V4.25H21.4388ZM16.7551 15V3C16.7551 2.33333 16.9116 1.77885 17.2245 1.33654C17.5442 0.887821 17.9592 0.554487 18.4694 0.336538C18.9864 0.112179 19.5408 0 20.1327 0C20.5884 0 20.9762 0.0352564 21.2959 0.105769C21.6156 0.176282 21.8503 0.23718 22 0.288462L21.4694 1.98077C21.3673 1.94872 21.2347 1.91346 21.0714 1.875C20.915 1.83654 20.7177 1.81731 20.4796 1.81731C19.9422 1.81731 19.5544 1.94551 19.3163 2.20192C19.0782 2.45192 18.9592 2.81731 18.9592 3.29808V15H16.7551Z" fill="#FAFAFA"/>
<path d="M10.2668 15C9.18643 15 8.25099 14.7746 7.46047 14.3238C6.66996 13.873 6.06061 13.2381 5.63241 12.419C5.2108 11.5937 5 10.6317 5 9.53333C5 8.44127 5.20751 7.47937 5.62253 6.64762C6.04414 5.81587 6.63373 5.16825 7.3913 4.70476C8.15547 4.23492 9.05138 4 10.0791 4C10.7049 4 11.3109 4.09841 11.8972 4.29524C12.4835 4.49206 13.0105 4.80317 13.4783 5.22857C13.946 5.65397 14.3149 6.20635 14.585 6.88571C14.8617 7.56508 15 8.38413 15 9.34286V10.0857H6.21542V8.53333H13.8933L12.8953 9.04762C12.8953 8.39365 12.7899 7.81587 12.5791 7.31429C12.3682 6.8127 12.052 6.42222 11.6304 6.14286C11.2154 5.85714 10.6983 5.71429 10.0791 5.71429C9.45982 5.71429 8.92951 5.85714 8.48814 6.14286C8.05336 6.42857 7.72069 6.80635 7.49012 7.27619C7.25955 7.74603 7.14427 8.26032 7.14427 8.81905V9.87619C7.14427 10.6063 7.27602 11.2254 7.53953 11.7333C7.80303 12.2413 8.16864 12.6286 8.63636 12.8952C9.11067 13.1619 9.66074 13.2952 10.2866 13.2952C10.695 13.2952 11.0639 13.2381 11.3933 13.1238C11.7292 13.0095 12.0191 12.8381 12.2628 12.6095C12.5066 12.381 12.691 12.0984 12.8162 11.7619L14.8518 12.1333C14.6871 12.7048 14.3972 13.2063 13.9822 13.6381C13.5672 14.0698 13.0435 14.4063 12.4111 14.6476C11.7852 14.8825 11.0705 15 10.2668 15Z" fill="#FAFAFA"/>
<path d="M1.70892 4.16319H3.73709V15.6675C3.74335 16.3887 3.61815 16.9973 3.3615 17.4931C3.10485 17.989 2.72926 18.3625 2.23474 18.6136C1.74022 18.8712 1.13302 19 0.413146 19H0V17.1937H0.328638C0.816901 17.1937 1.16745 17.0617 1.38028 16.7977C1.59311 16.5336 1.70266 16.1537 1.70892 15.6579V4.16319ZM2.71361 2.50178C2.35681 2.50178 2.05321 2.37943 1.80282 2.13472C1.55243 1.89002 1.42723 1.59702 1.42723 1.25572C1.42723 0.907982 1.55243 0.611761 1.80282 0.367056C2.05321 0.122352 2.35681 0 2.71361 0C3.06416 0 3.36463 0.122352 3.61502 0.367056C3.87167 0.611761 4 0.907982 4 1.25572C4 1.59702 3.87167 1.89002 3.61502 2.13472C3.36463 2.37943 3.06416 2.50178 2.71361 2.50178Z" fill="#FAFAFA"/>
</svg>

<svg xmlns="http://www.w3.org/2000/svg" fill="none">
  <defs>
    <symbol id="logo" viewBox="0 0 84 19">
      <path fill="#FAFAFA" d="m79.216 9 .139-2.93-2.561 1.593L76 6.346l2.72-1.336L76 3.673l.794-1.336 2.56 1.594L79.217 1h1.568l-.139 2.93 2.561-1.593L84 3.673 81.28 5.01 84 6.346l-.794 1.317-2.56-1.594L80.783 9h-1.568ZM67.086 8.557V15H65V4.136h2.028v1.788h.145a3.022 3.022 0 0 1 1.149-1.4c.521-.35 1.19-.524 2.008-.524.734 0 1.375.155 1.922.466.554.305.982.762 1.285 1.37.308.61.463 1.364.463 2.265V15h-2.086V8.353c0-.784-.206-1.399-.618-1.846-.412-.453-.972-.68-1.68-.68-.483 0-.918.11-1.304.33a2.29 2.29 0 0 0-.898.923c-.219.402-.328.894-.328 1.477ZM58.995 15c-1.003 0-1.882-.229-2.636-.686-.748-.457-1.33-1.098-1.745-1.924-.41-.825-.614-1.784-.614-2.876 0-1.104.205-2.07.614-2.895.415-.832.997-1.476 1.745-1.933.754-.457 1.633-.686 2.636-.686 1.01 0 1.889.229 2.637.686.748.457 1.33 1.101 1.745 1.933.415.825.623 1.79.623 2.895 0 1.092-.208 2.051-.623 2.877-.416.825-.997 1.466-1.745 1.923-.748.457-1.627.686-2.637.686Zm0-1.743c.659 0 1.202-.171 1.63-.514.428-.343.745-.797.95-1.362.21-.572.316-1.194.316-1.867 0-.685-.106-1.314-.317-1.885-.204-.572-.52-1.029-.949-1.372-.428-.343-.971-.514-1.63-.514-.652 0-1.192.171-1.62.514-.422.343-.738.8-.95 1.372-.21.571-.316 1.2-.316 1.885 0 .673.106 1.296.317 1.867.21.565.527 1.019.949 1.362.428.343.968.514 1.62.514ZM52.782 6.743l-1.953.324c-.125-.356-.36-.683-.703-.981-.337-.299-.843-.448-1.517-.448-.608 0-1.117.133-1.526.4-.404.26-.605.594-.605 1 0 .356.135.645.406.867.278.222.717.4 1.319.533l1.774.381c1.01.222 1.768.571 2.27 1.048.502.476.753 1.085.753 1.828 0 .641-.192 1.213-.575 1.714-.383.496-.915.886-1.596 1.172-.68.28-1.467.419-2.359.419-1.242 0-2.253-.257-3.033-.771-.78-.515-1.259-1.238-1.437-2.172l2.072-.305c.132.521.4.915.802 1.181.41.267.939.4 1.586.4.7 0 1.262-.143 1.685-.428.43-.286.645-.632.645-1.038 0-.673-.522-1.127-1.566-1.362l-1.874-.4c-1.037-.229-1.804-.588-2.3-1.076-.488-.496-.733-1.118-.733-1.867 0-.629.182-1.181.545-1.657.37-.476.876-.845 1.517-1.105.647-.267 1.384-.4 2.21-.4 1.203 0 2.145.25 2.825.752a3.55 3.55 0 0 1 1.368 1.99ZM38 15V4.155h2.1v1.737h.121a2.675 2.675 0 0 1 1.086-1.378A3.154 3.154 0 0 1 43.075 4c.134 0 .292.006.473.02.187.006.338.016.452.029v2.017a3.194 3.194 0 0 0-.472-.077 5.789 5.789 0 0 0-.674-.04c-.516 0-.978.107-1.387.32-.402.208-.72.496-.954.864a2.318 2.318 0 0 0-.342 1.261V15H38ZM32.267 15c-1.08 0-2.016-.225-2.807-.676a4.596 4.596 0 0 1-1.828-1.905c-.421-.825-.632-1.787-.632-2.886 0-1.092.207-2.054.622-2.885a4.728 4.728 0 0 1 1.77-1.943c.764-.47 1.66-.705 2.687-.705.626 0 1.232.098 1.818.295a4.419 4.419 0 0 1 1.581.934c.468.425.837.977 1.107 1.657.277.68.415 1.498.415 2.457v.743h-8.785V8.533h7.678l-.998.515c0-.654-.105-1.232-.316-1.734a2.55 2.55 0 0 0-.949-1.171c-.415-.286-.932-.429-1.55-.429-.62 0-1.15.143-1.592.429a2.817 2.817 0 0 0-.998 1.133c-.23.47-.346.984-.346 1.543v1.057c0 .73.132 1.35.396 1.857.263.508.629.896 1.096 1.162.475.267 1.025.4 1.65.4.409 0 .778-.057 1.107-.171.336-.115.626-.286.87-.514.244-.229.428-.512.553-.848l2.036.371a3.567 3.567 0 0 1-.87 1.505c-.415.432-.938.768-1.57 1.01-.627.235-1.341.352-2.145.352ZM27.439 4.25v1.683H21V4.25h6.439ZM22.755 15V3c0-.667.157-1.221.47-1.663.32-.45.734-.783 1.244-1A4.132 4.132 0 0 1 26.133 0c.455 0 .843.035 1.163.106.32.07.554.131.704.182l-.53 1.693a5.865 5.865 0 0 0-.399-.106 2.535 2.535 0 0 0-.591-.058c-.538 0-.926.129-1.164.385-.238.25-.357.615-.357 1.096V15h-2.204Z"/>
      <path fill="#FAFAFA" d="M21.439 4.25v1.683H15V4.25h6.439ZM16.755 15V3c0-.667.157-1.221.47-1.663.32-.45.734-.783 1.244-1A4.132 4.132 0 0 1 20.133 0c.455 0 .843.035 1.163.106.32.07.554.131.704.182l-.53 1.693a5.865 5.865 0 0 0-.399-.106 2.535 2.535 0 0 0-.591-.058c-.538 0-.926.129-1.164.385-.238.25-.357.615-.357 1.096V15h-2.204ZM10.267 15c-1.08 0-2.016-.225-2.807-.676a4.596 4.596 0 0 1-1.828-1.905C5.211 11.594 5 10.632 5 9.533c0-1.092.208-2.054.623-2.885A4.728 4.728 0 0 1 7.39 4.705C8.155 4.235 9.051 4 10.08 4c.626 0 1.232.098 1.818.295a4.419 4.419 0 0 1 1.581.934c.468.425.837.977 1.107 1.657.277.68.415 1.498.415 2.457v.743H6.215V8.533h7.678l-.998.515c0-.654-.105-1.232-.316-1.734a2.55 2.55 0 0 0-.949-1.171c-.415-.286-.932-.429-1.55-.429-.62 0-1.15.143-1.592.429a2.816 2.816 0 0 0-.998 1.133c-.23.47-.346.984-.346 1.543v1.057c0 .73.132 1.35.396 1.857.263.508.629.896 1.096 1.162.475.267 1.025.4 1.65.4.409 0 .778-.057 1.107-.171.336-.115.626-.286.87-.514.244-.229.428-.512.553-.848l2.036.371a3.567 3.567 0 0 1-.87 1.505c-.415.432-.938.768-1.57 1.01-.627.235-1.342.352-2.145.352ZM1.709 4.163h2.028v11.505c.006.72-.119 1.33-.376 1.825a2.53 2.53 0 0 1-1.126 1.12C1.74 18.872 1.133 19 .413 19H0v-1.806h.329c.488 0 .838-.132 1.051-.396.213-.264.323-.644.329-1.14V4.163Zm1.005-1.661c-.357 0-.66-.123-.911-.367a1.186 1.186 0 0 1-.376-.88c0-.347.125-.643.376-.888.25-.245.554-.367.91-.367.351 0 .652.122.902.367.257.245.385.541.385.889 0 .341-.128.634-.385.879-.25.244-.55.367-.901.367Z"/>
    </symbol >
  </defs>
</svg>
